X:33
T:Kn\"appvalsen efter Pelle Fors
R:vals
A:\"Osterg\"otland
B:SvL \"Ogl 342 efter Carl August M{\aa}nsson
Z:id:hn-vals-33
M:3/4
L:1/8
K:A
A,2 "+"cz "+"Az | "+"[AE]z "+"cz "+"Az | "arco"Bc BA Bc | dc AG EC |
A,2 "+"cz "+"Az | "+"[AE]z "+"cz "+"Az | "arco"Bc BA Bc |
[1 [A3A3] DCB, :|2 [A4A4] z2 |: CE AE CE | DF AF DF | CE AE CE |
B,E AE B,E | CE AE CE | DF AF DF | CE AE B,E |1 A,4 z2 :|
[2 A,4 cd |: e3 c de | fe de c2 | ef ed B2 | (3ded c2 A2 |
e3 c de | fe de c2 | ef ed Bc |1 [A4A4] cd :|2 [A4A4] z2 ||

